X:1
T:Tranquility
T:Tranquility
T:James Mountain, 1876
T:Public Domain Courtesy of the Cyber Hymnal™
C:James Mountain, 1876
Z:Public Domain
Z:Courtesy of the Cyber Hymnal™
%%score ( 1 2 ) ( 3 4 )
L:1/8
Q:1/4=110
M:4/4
K:G
V:1 treble 
V:2 treble 
V:3 bass 
V:4 bass 
V:1
 [B,D]3 [B,D] [CE]2 [B,D]2 | [CE]2 [CF]2 [DF]2 [DG]2 | D3 D [CE]2 D2 | [CF]2 [B,G]2 [DA]4 | %4
 [DB]3 [DA] [Gc]2 [GB]2 | [FA]2 [EG]2 [EG]2 [CE]2 | D2 [B,G]2 [DG]2 [DF]2 | [DG]8!fine! | %8
 [FA]3 [FA] [^E^G]2 [FA]2 | [FB]2 [FA]2 [DA]2 [DG]2 | [^DF]3 [DF] E2 [Ec]2 | [EB]2 [EA]2 G2 F2 | %12
 [DF]3 [DF] [DG]2 [DA]2 | [DB]2 [Dc]2 [Dd]2 [DB]2 | [B,D]2 [DG]2 [CG]2 [DF]2 | [DG]8!D.C.! |] %16
V:2
 x8 | x8 | D3 D x D2 x | x8 | x8 | x8 | D2 x6 | x8 | x8 | x8 | x8 | x4 D4 | x8 | x8 | x8 | x8 |] %16
V:3
 [G,,G,]3 [G,,G,] [G,,G,]2 [G,,G,]2 | [C,G,]2 [A,,A,]2 [D,A,]2 [G,B,]2 | %2
 [B,,G,]3 [B,,G,] [C,G,]2 [B,,G,]2 | [A,,D,]2 [G,,D,]2 [D,F,]4 | G,3 [F,A,] [E,G,]2 [D,D]2 | %5
 [^D,C]2 [E,B,]2 [C,C]2 [C,G,]2 | [B,,G,]2 [G,,G,]2 [D,B,]2 [D,A,]2 | [G,,G,B,]8 | %8
 [D,C]3 [D,C] [D,B,]2 [D,C]2 | [D,D]2 [D,C]2 [G,C]2 [G,B,]2 | [B,,A,]3 [B,,A,] [C,G,]2 [A,,A,]2 | %11
 [B,,^G,]2 [C,A,]2 B,2 A,2 | [C,A,]3 [C,A,] [B,,G,]2 [A,,F,]2 | %13
 [G,,G,]2 [A,,F,]2 [B,,G,]2 [G,,G,]2 | [D,G,]2 [D,B,]2 [D,A,]2 [D,C]2 | [G,B,]8 |] %16
V:4
 x8 | x8 | x8 | x8 | G,3 x5 | x8 | x8 | x8 | x8 | x8 | x8 | x4 D,4 | x8 | x8 | x8 | x8 |] %16

